X: 5833
T: Callan Bridge
R: reel
M: 4/4
K: Dmajor
F3G A2 GE|FDFA GE E2|F3G A3B|AFGE FD D2|
F3G ADFA|FDAD GE E2|F3G Ad=cA|AFGE FD D2||
A3B d3B|GBde eA A2|A3B dGBd|AFGE FD D2|
A3B dGBd|GBdB eA A2|GBdG dGBd|AFGE FD D2||

